icons/1_Primary/Northflank.svg

<svg width="1024" height="1024" viewBox="0 0 1024 1024" fill="none" xmlns="http://www.w3.org/2000/svg">
<g clip-path="url(#clip0_2_2964)">
<path d="M512 1024C794.77 1024 1024 794.77 1024 512C1024 229.23 794.77 0 512 0C229.23 0 0 229.23 0 512C0 794.77 229.23 1024 512 1024Z" fill="#9ABEFF"/>
<path d="M797.27 396.34L755.03 323.24C753.25 320.174 750.697 317.627 747.627 315.853C744.557 314.079 741.076 313.14 737.53 313.13H702.96L702.74 312.74H653.48C646.26 312.76 639.6 316.61 635.98 322.85L580.67 418.56L603.98 459.18L664.91 353.3H703.25V353.72H725.88L756.42 406.52L603.62 671.24H542.69L535.46 658.72L512.12 618.11L504.93 605.65L488.68 577.7L481.46 565.2L474.23 552.68L456.63 522.07H456.85L451 511.92L481.54 459.12L542.7 458.95L549.9 471.46L567.53 502.16H567.12L572.92 512.24L542.39 565.03H481.46L488.69 577.54L504.93 605.49H554.31C561.53 605.46 568.2 601.6 571.81 595.34L614.05 522.23C615.746 519.148 616.611 515.679 616.56 512.162C616.509 508.645 615.544 505.201 613.76 502.17H613.43L614.06 502.01H614.07L596.73 471.39L589.5 458.87L573.25 430.98L566.07 418.42L510.75 322.71C508.97 319.644 506.417 317.097 503.347 315.323C500.277 313.549 496.796 312.61 493.25 312.6H408.77C405.223 312.609 401.739 313.547 398.667 315.321C395.595 317.095 393.041 319.642 391.26 322.71L226.75 607.64C224.966 610.727 224.027 614.23 224.027 617.795C224.027 621.36 224.966 624.863 226.75 627.95L269.01 701.05C270.79 704.116 273.342 706.663 276.413 708.437C279.483 710.211 282.964 711.149 286.51 711.16H321.42L321.52 711.33H371.03C378.26 711.3 384.92 707.43 388.53 701.17L443.8 605.45L420.29 564.8L359.14 670.71H321.52V670.54H298.19L267.62 617.74L420.39 353.07H481.47L519.25 418.49L469.93 418.5C462.69 418.51 456.01 422.38 452.38 428.65L410.14 501.75C408.356 504.837 407.417 508.34 407.417 511.905C407.417 515.47 408.356 518.973 410.14 522.06H410.64L410.02 522.21L427.52 552.54L434.75 565.05L450.99 592.99L465.46 617.97L513.54 701.23C515.316 704.303 517.866 706.857 520.937 708.638C524.007 710.419 527.49 711.364 531.04 711.38H615.51C622.73 711.35 629.4 707.49 633.01 701.23L797.49 416.34C799.187 413.27 800.061 409.812 800.026 406.304C799.991 402.795 799.048 399.356 797.29 396.32L797.27 396.34Z" fill="white"/>
</g>
<defs>
<clipPath id="clip0_2_2964">
<rect width="1024" height="1024" fill="white"/>
</clipPath>
</defs>
</svg>

<svg width="1024" height="1024" fill="none" xmlns="http://www.w3.org/2000/svg"><g clip-path="url(#a)"><path d="M512 1024c282.77 0 512-229.23 512-512S794.77 0 512 0 0 229.23 0 512s229.23 512 512 512Z" fill="#9ABEFF"/><path d="m797.27 396.34-42.24-73.1a20.31 20.31 0 0 0-17.5-10.11h-34.57l-.22-.39h-49.26c-7.22.02-13.88 3.87-17.5 10.11l-55.31 95.71 23.31 40.62 60.93-105.88h38.34v.42h22.63l30.54 52.8-152.8 264.72h-60.93l-7.23-12.52-23.34-40.61-7.19-12.46-16.25-27.95-7.22-12.5-7.23-12.52-17.6-30.61h.22L451 511.92l30.54-52.8 61.16-.17 7.2 12.51 17.63 30.7h-.41l5.8 10.08-30.53 52.79h-60.93l7.23 12.51 16.24 27.95h49.38c7.22-.03 13.89-3.89 17.5-10.15l42.24-73.11a20.272 20.272 0 0 0-.29-20.06h-.33l.63-.16h.01l-17.34-30.62-7.23-12.52-16.25-27.89-7.18-12.56-55.32-95.71a20.31 20.31 0 0 0-17.5-10.11h-84.48a20.307 20.307 0 0 0-17.51 10.11L226.75 607.64a20.296 20.296 0 0 0 0 20.31l42.26 73.1a20.303 20.303 0 0 0 17.5 10.11h34.91l.1.17h49.51c7.23-.03 13.89-3.9 17.5-10.16l55.27-95.72-23.51-40.65-61.15 105.91h-37.62v-.17h-23.33l-30.57-52.8 152.77-264.67h61.08l37.78 65.42-49.32.01c-7.24.01-13.92 3.88-17.55 10.15l-42.24 73.1a20.296 20.296 0 0 0 0 20.31h.5l-.62.15 17.5 30.33 7.23 12.51 16.24 27.94 14.47 24.98 48.08 83.26a20.313 20.313 0 0 0 17.5 10.15h84.47c7.22-.03 13.89-3.89 17.5-10.15l164.48-284.89a20.328 20.328 0 0 0-.2-20.02l-.02.02Z" fill="#fff"/></g><defs><clipPath id="a"><path fill="#fff" d="M0 0h1024v1024H0z"/></clipPath></defs></svg>
